icons/svgs/moon-stars-outline.svg

<svg width="24" height="24" viewBox="0 0 24 24" fill="none" xmlns="http://www.w3.org/2000/svg">
<path d="M13.5234 7.39062L13.0938 5.90625L11.6094 5.47656C11.4531 5.4375 11.375 5.28125 11.375 5.125C11.375 5.00781 11.4531 4.85156 11.6094 4.8125L13.0938 4.38281L13.5234 2.89844C13.5625 2.74219 13.7188 2.625 13.875 2.625C13.9922 2.625 14.1484 2.74219 14.1875 2.89844L14.6172 4.38281L16.1016 4.8125C16.2578 4.85156 16.375 5.00781 16.375 5.125C16.375 5.28125 16.2578 5.4375 16.1016 5.47656L14.6172 5.90625L14.1875 7.39062C14.1484 7.54688 13.9922 7.625 13.875 7.625C13.7188 7.625 13.5625 7.54688 13.5234 7.39062ZM17.7422 14.1484L17.1172 11.8828L14.8516 11.2578C14.6172 11.1797 14.5 10.9844 14.5 10.75C14.5 10.5547 14.6172 10.3594 14.8516 10.2812L17.1172 9.65625L17.7422 7.39062C17.8203 7.15625 18.0156 7 18.25 7C18.4453 7 18.6406 7.15625 18.7188 7.39062L19.3438 9.65625L21.6094 10.2812C21.8438 10.3594 22 10.5547 22 10.75C22 10.9844 21.8438 11.1797 21.6094 11.2578L19.3438 11.8828L18.7188 14.1484C18.6406 14.3828 18.4453 14.5 18.25 14.5C18.0156 14.5 17.8203 14.3828 17.7422 14.1484ZM3.875 14.5C3.875 17.625 6.375 20.125 9.5 20.125C10.6328 20.125 11.7266 19.7734 12.625 19.1875C9.46094 18.875 7 16.2188 7 12.9375C7 11.4531 7.50781 10.0859 8.40625 8.99219C5.82812 9.5 3.875 11.7656 3.875 14.5ZM9.5 7C10.0859 7 10.6719 7.07812 11.2188 7.23438C11.6094 7.3125 11.8828 7.625 11.9219 8.05469C11.9609 8.44531 11.7656 8.79688 11.375 8.99219C9.89062 9.69531 8.83594 11.1797 8.83594 12.9375C8.83594 15.3594 10.8281 17.3125 13.2109 17.3125C13.7578 17.3125 14.2656 17.2344 14.7734 17.0391C15.125 16.9219 15.5547 17.0391 15.7891 17.3516C16.0625 17.6641 16.1016 18.0938 15.8672 18.4062C14.5781 20.5938 12.1953 22 9.5 22C5.35938 22 2 18.6406 2 14.5C2 10.3594 5.35938 7 9.5 7Z" fill="black"/>
</svg>

<svg xmlns="http://www.w3.org/2000/svg" width="24" height="24" fill="currentColor" class="icon-moon-stars-outline" viewBox="0 0 24 24">
  <mask id="a" width="20" height="20" x="2" y="2" maskUnits="userSpaceOnUse" style="mask-type:alpha">
    <path d="m13.523 7.39-.43-1.484-1.484-.43c-.156-.038-.234-.195-.234-.351 0-.117.078-.273.234-.312l1.485-.43.43-1.485a.375.375 0 0 1 .351-.273c.117 0 .273.117.313.273l.43 1.485 1.484.43c.156.039.273.195.273.312a.375.375 0 0 1-.273.352l-1.485.43-.43 1.484c-.039.156-.195.234-.312.234-.156 0-.312-.078-.352-.234m4.22 6.758-.626-2.265-2.265-.625c-.235-.078-.352-.274-.352-.508 0-.195.117-.39.352-.469l2.265-.625.625-2.265c.078-.235.274-.391.508-.391.195 0 .39.156.469.39l.625 2.266 2.265.625c.235.078.391.274.391.469 0 .234-.156.43-.39.508l-2.266.625-.625 2.265a.49.49 0 0 1-.469.352c-.234 0-.43-.117-.508-.352M3.874 14.5c0 3.125 2.5 5.625 5.625 5.625a5.76 5.76 0 0 0 3.125-.937A6.246 6.246 0 0 1 7 12.938c0-1.485.508-2.852 1.406-3.946A5.62 5.62 0 0 0 3.875 14.5M9.5 7c.586 0 1.172.078 1.719.234.39.079.664.391.703.82.039.391-.156.743-.547.938-1.484.703-2.54 2.188-2.54 3.945 0 2.422 1.993 4.376 4.376 4.376a4.3 4.3 0 0 0 1.562-.274.93.93 0 0 1 1.016.313c.274.312.313.742.078 1.054C14.578 20.594 12.195 22 9.5 22 5.36 22 2 18.64 2 14.5S5.36 7 9.5 7"/>
  </mask>
  <g mask="url(#a)">
    <path d="M0 0h24v24H0z"/>
  </g>
</svg>
